X: 1
T: Henry's
R: polka
M: 2/4
L: 1/8
K: Dmaj
FA AB|de fa|ga/g/ fe|dB BA|FA AB|de fa|ga/g/ fe|ed d2:|
ea ef|ga/g/ fd|ea ef|g2 f2|ea ef|ga/g/ fd|1 ef/e/ dB|BA A2:|2 ef/e/ d=c|B=c/B/ AG||
|:FA AB|de fa|ga/g/ fe|dB BA|FA AB|de fa|ga/g/ fe|ed d2:|

